symbols/craft/shoemaker.svg

<?xml version="1.0" encoding="UTF-8" standalone="no"?>
<svg
   xmlns:dc="http://purl.org/dc/elements/1.1/"
   xmlns:cc="http://creativecommons.org/ns#"
   xmlns:rdf="http://www.w3.org/1999/02/22-rdf-syntax-ns#"
   xmlns:svg="http://www.w3.org/2000/svg"
   xmlns="http://www.w3.org/2000/svg"
   viewBox="0 0 14 14"
   height="14"
   width="14"
   id="shoemaker"
   version="1.1">
  <metadata
     id="metadata115">
    <rdf:RDF>
      <cc:Work
         rdf:about="">
        <dc:format>image/svg+xml</dc:format>
        <dc:type
           rdf:resource="http://purl.org/dc/dcmitype/StillImage" />
        <dc:title></dc:title>
      </cc:Work>
    </rdf:RDF>
  </metadata>
  <defs
     id="defs113" />
  <path
     id="shoes"
     d="M 3.1132812,0 C 2.355102,0.62055172 1.6033773,1.2221893 1.3496094,2.7578125 c -2.454e-4,0.00148 -0.00171,0.00242 -0.00195,0.00391 h 0.00195 l 0.00977,1.4472656 h 0.2792969 l 0.00195,0.90625 H 1.3515625 L 1.3535156,6.078125 2.8125,6.0800781 2.8105469,5.1191406 H 2.5234375 l -0.00195,-0.9101562 10.1289066,0.00391 -0.0098,-1.4511718 C 9.3606769,2.7600105 6.0807252,2.7613006 2.8007812,2.7558594 2.0446519,2.1539692 2.7303849,0.67099409 3.3085938,0.171875 3.1761476,0.05552352 3.2320003,0.10248021 3.1132812,0 Z M 1.3476562,7.5410156 V 9.15625 H 5.5878906 V 7.5410156 Z m 6.8632813,0 c -0.4037198,0 -0.96875,0.8066406 -0.96875,0.8066406 H 12.652344 V 7.5410156 Z M 6.8378906,8.953125 c 0.00516,0 -0.6451083,0.8085938 -1.0488281,0.8085938 H 1.3476562 C 1.3476563,12.184038 1.953125,14 1.953125,14 H 2.15625 c 0.8207398,-1.217952 2.421764,-1.217952 3.0273438,0 h 0.2011718 c 0,0 1.6144353,-0.806996 2.421875,-2.421875 H 9.421875 c 0.80744,0 3.230469,-0.202681 3.230469,-2.625 z m -0.2421875,2.625 C 6.8186711,11.578125 7,11.757501 7,11.980469 c 0,0.222968 -0.1813289,0.404297 -0.4042969,0.404297 -0.222968,0 -0.4023437,-0.181329 -0.4023437,-0.404297 0,-0.222968 0.1793757,-0.402344 0.4023437,-0.402344 z m -0.8066406,0.806641 c 0.222968,0 0.4042969,0.181329 0.4042969,0.404296 0,0.222968 -0.1813289,0.404297 -0.4042969,0.404297 -0.222968,0 -0.4042969,-0.181329 -0.4042969,-0.404297 0,-0.222967 0.1813289,-0.404296 0.4042969,-0.404296 z"
     style="stroke-width:0.80743968" />
</svg>

<?xml version="1.0" encoding="UTF-8"?>
<svg id="shoemaker" width="14" height="14" version="1.1" viewBox="0 0 14 14" xmlns="http://www.w3.org/2000/svg">
 <path id="shoes" d="m3.1133 0c-0.75818 0.62055-1.5099 1.2222-1.7637 2.7578-2.454e-4 0.00148-0.00171 0.00242-0.00195 0.00391h0.00195l0.00977 1.4473h0.2793l0.00195 0.90625h-0.28906l0.0019531 0.96289 1.459 0.0019531-0.0019531-0.96094h-0.28711l-0.00195-0.91016 10.129 0.00391-0.0098-1.4512c-3.2799-0.0017121-6.5599-4.22e-4 -9.8398-0.0058632-0.75613-0.60189-0.070396-2.0849 0.50781-2.584-0.13245-0.11635-0.076594-0.069395-0.19531-0.17188zm-1.7656 7.541v1.6152h4.2402v-1.6152zm6.8633 0c-0.40372 0-0.96875 0.80664-0.96875 0.80664h5.4102v-0.80664zm-1.373 1.4121c0.00516 0-0.64511 0.80859-1.0488 0.80859h-4.4414c1e-7 2.4223 0.60547 4.2383 0.60547 4.2383h0.20312c0.82074-1.218 2.4218-1.218 3.0273 0h0.20117s1.6144-0.807 2.4219-2.4219h1.6152c0.80744 0 3.2305-0.20268 3.2305-2.625zm-0.24219 2.625c0.22297 0 0.4043 0.17938 0.4043 0.40234s-0.18133 0.4043-0.4043 0.4043-0.40234-0.18133-0.40234-0.4043 0.17938-0.40234 0.40234-0.40234zm-0.80664 0.80664c0.22297 0 0.4043 0.18133 0.4043 0.4043 0 0.22297-0.18133 0.4043-0.4043 0.4043s-0.4043-0.18133-0.4043-0.4043c0-0.22297 0.18133-0.4043 0.4043-0.4043z"/>
</svg>
